X:1
T:Title
%%score { ( 1 5 6 ) | ( 2 3 4 ) }
L:1/8
Q:1/4=85
M:4/4
K:C
V:1 treble nm="Grand Piano"
V:5 treble 
V:6 treble 
V:2 bass 
V:3 bass 
V:4 bass 
V:1
 [EG]>[EA] [EA]>[EG] [EG]>[Ec] (3[Ec][EB][EA] | [EG]>[EA] [EA]>[EG] B2 B2 | G>A A>G G>B (3BAB | %3
w: Charles~H.~Gabriel * * * * * * * *|||
 [^Fc]>A B>c d2 G2 | [EG]>[EA] [EA]>[EG] [EG]>[Ec] (3[Ec][EB][EA] | %5
w: ||
 [EG]>[EA] [EA]>[EG] [FB]2 [FB]2 | [Ac]>[^GB] [Ac]>[DA] [DBd]>[E_B^c] (3[D=Bd][DA=c][D=GB] | %7
w: ||
 [D^FA]>[DAc] [DGB]>[CFA] [B,G]4 | G2 d2 c2 z2 | [CEG]2 .[CEG]2 G->[EG-] [EG]2 | z4 d4 | %11
w: ||||
 [Ec]>[DB] (3[Ec]de z z/ C/ (3cd_e | G2 d2 c2 z2 | z4 G4 | A>A (3[Af]ed G>G (3edc | %15
w: ||||
 B>B A>B [Ec]4 |] %16
w: |
V:2
 [C,C]>[C,C] [C,C]>[C,C] [C,C]>[C,G,] (3[C,G,][C,A,][C,B,] | %1
 [C,C]>[C,C] [C,C]>[C,C][K:treble] [G,DF]2 [G,DF]2 | %2
 [G,B,F]>[G,B,F] [G,B,F]>[G,B,F] [G,B,F]>[G,DF] (3[G,DF][G,CF][G,DF] | %3
 [D,D]>[CD^F] [B,DF]>[A,DF] [G,B,=F]2 [G,B,F]2 | %4
 [C,C]>[C,C] [C,C]>[C,C] [C,C]>[C,G,] (3[C,G,][C,A,][C,C] | %5
 [C,C]>[C,C] [C,C]>[C,C] [D,G,]2 [G,D]2 | [D,D]>[D,D] [D,D]>^F, G,>G, (3G,G,G, | %7
 z4 z2[K:treble] (3cd_e | [C,C]>[C,C] [C,G,]>[C,G,] [C,G,]>[C,G,] [C,A,]>C, | %9
 z z/ G/ (3z[K:treble] AE[K:bass] [C,C]>[C,C] [C,C]2 | %10
 [G,B,]->[G,B,D][K:treble] (3:2:2z2 F F->[G,F-] [G,F]2 | %11
 [C,G,]2 (3z[K:treble] FG[K:bass] (3z[K:treble] AB[K:bass] [C,C]2 | %12
 [C,C]>[C,C] [C,G,]>[C,G,] [C,G,]>[C,G,] [C,A,]>C, | %13
 z z/ G/ (3z[K:treble] AE[K:bass] [C,C]>[C,C] [C,C]2 | F>F (3z GF E>E (3GFE | %15
 [G,DF]>[G,DF] [G,DF]>[G,F][K:bass] [C,G,]4 |] %16
V:3
 x8 | x4[K:treble] x4 | x8 | x8 | x8 | x8 | x8 | D,>C, D,>D, (3z[K:treble] AB z2 | x8 | %9
 C,2 C,2[K:treble][K:bass] z4 | D2[K:treble] [B,D]2 [G,B,]2 z2 | %11
 z2 G,2[K:treble][K:bass] z[K:treble] z/[K:bass] C,/ z2 | x8 | C,2 C,2[K:treble][K:bass] z4 | %14
 [F,C]2 C2 [G,C]2 [G,C]2 | x4[K:bass] x4 |] %16
V:4
 x8 | x4[K:treble] x4 | x8 | x8 | x8 | x8 | x8 | z4 G,4[K:treble] | x8 | %9
 x8/3[K:treble] x4/3[K:bass] x4 | z2[K:treble] G,2 z4 | %11
 z2 C,2[K:treble][K:bass] C,2[K:treble][K:bass] z2 | x8 | x8/3[K:treble] x4/3[K:bass] x4 | %14
 z2 F,2 z4 | x4[K:bass] x4 |] %16
V:5
 x8 | x8 | x8 | x8 | x8 | x8 | x8 | x8 | e->[Ge] F>F E>E [GB]>[B,FA] | z4 E2 z2 | %10
 G>F (3FGB z z/ B,/ B,2 | z4 [EG]4 | e->[Ge] F>F E>E [GB]>[B,FA] | [CEG]2 .[CEG]2 E>E E2 | x8 | %15
 x8 |] %16
V:6
 x8 | x8 | x8 | x8 | x8 | x8 | x8 | x8 | x8 | x8 | x8 | z4 C2 z2 | x8 | x8 | x8 | x8 |] %16

